X: 33800
T: Ray's Classic
R: polka
M: 2/4
K: Gmajor
|:G>F GD|EG D2|EA AG/A/|BA AB/A/|
G>F GD|EG D2|EA G/F/E/F/|1 G2 GB/A/:|2 G2 GB/c/||
|:d>e dG|e2 eB|Ae ed/e/|f>g f/e/d/c/|
Bf fe/f/|g2 f>e|dG A/G/A/B/|1 G2 GB/c/:|2 G2 GB/A/||

